X:1
T:Emendemus in melius
T:Orlando Lassus arr from sattb BMarble
T:Distribution of Ashes
T:Emendemus in melius
T:Copyright © 2016 by CPDL. This edition can be fully distributed, duplicated, performed, and recorded 
T:Copyright © 2016 by CPDL. This edition can be fully distributed, duplicated, performed, and recorded 
T:Copyright © 2016 by CPDL. This edition can be fully distributed, duplicated, performed, and recorded 
T:Copyright © 2016 by CPDL. This edition can be fully distributed, duplicated, performed, and recorded 
T:Copyright © 2016 by CPDL. This edition can be fully distributed, duplicated, performed, and recorded 
T:Copyright © 2016 by CPDL. This edition can be fully distributed, duplicated, performed, and recorded 
T:Copyright © 2016 by CPDL. This edition can be fully distributed, duplicated, performed, and recorded 
T:Copyright © 2016 by CPDL. This edition can be fully distributed, duplicated, performed, and recorded 
T:Copyright © 2016 by CPDL. This edition can be fully distributed, duplicated, performed, and recorded 
C:Orlando Lassus
C:arr from sattb BMarble
Z:Distribution of Ashes
Z:Copyright © 2016 by CPDL. This edition can be fully distributed, duplicated, performed, and recorded
%%score [ 1 2 3 4 ]
L:1/8
Q:1/2=80
M:4/2
K:Eb
V:1 treble nm="Soprano" snm="S."
V:2 treble nm="Alto" snm="A."
V:3 treble-8 transpose=-12 nm="Tenor" snm="T."
V:4 bass nm="Bass" snm="B."
V:1
 z16 | z16 | z16 | z8 z4 c4 | c4 B4 A8 | c12 c4 | B8 G8 | e8 e4 d4 | c8 z8 | z4 F4 F4 =E4 | F16- | %11
w: |||In|me- li- us,|e- men-|de- mus|in me- li-|us,|in me- li-|us,|
 F8 z8 | z16 | z16 | z16 | z8 z4 B4 | G4 G4 A8 | F4 (f2 e2 _d2 c2 B4) | c6 BA B6 AG | A6 GF G4 G4 | %20
w: _||||quae|i- gno- ran-|ter pec- * * * *|ca- * * * * *|* * * * vi-|
 F8 z8 | z4 B4 c2 B2 A2 B2 | c2 B2 e8 d4 | e8 z8 | z4 e4 f4 c4 | _d8 c8 | A16 | G4 (A8 G2 F2 | %28
w: mus:|ne su- * * *|* * * bi-|to|prae- oc- cu-|pa- ti|di-|e mor- * *|
 =E8) E4 G4 | (=A2 G2 A2 B2 c4) A4 | z8 z4 F4 | (G2 F2 G2 A2 B8) | E4 z4 z4 E4 | B4 B4 B6 B2 | %34
w: * tis, quae-|ra- * * * * mus,|quae-|ra.- * * * *|mus, quae-|ra- mus spa- ti-|
 c8 B8 | G4 e6 d2 c4- | c2 B2 A6 G2 F4- | F4 =E4 F8 | z16 | z16 | z16 | z16 | z8 z4 d4 | %43
w: um poe-|ni- ten- * *||* ti- ae,|||||et|
 e4 e4 (d4 c2 B2 | c4) d4 (c6 d2 | e4) d6 c2 c4- | c4 =B4 c8 | z8 z4 G4 | A4 A4 (G4 F2 E2 | %49
w: in- ve- ni- * *|* re non _|_ pos- * *|* si- mus,|et|in- ve- ni- * *|
 F4) G4 (F6 G2 | A4) G6 F2 F4- | F4 =E4 F8- | F8 z8 | z4 c4 f8 | (e6 =d2 c2 B2 c4-) | %55
w: * re non _|_ pos- * *|* si- mus.|_|At- ten-|de _ _ _ _|
 c4 B6 A2 B2 G2 | A2 B2 c8 =B4 | c8 z8 | z8 z4 c4 | =B4 B4 c8- | c8 =B8 | z16 | z8 z4 c4 | %63
w: _ Do- * * *|* * * mi-|ne,|et|mi- se- re-|* re:||qui-|
 _B4 G4 B8- | B4 F4 F4 F4 | C12 c4 | B4 G4 B6 B2 | B4 (c6 BA B4) | c4 e4 d4 B4 | B4 F4 c4 B4 | %70
w: a pec- ca-|* vi- mus ti-|bi, qui-|a- pec- ca- vi-|mus ti- * * *|bi, qui- a pec-|ca- vi- mus ti-|
 c8 z4 c4 | B4 G4 B6 B2 | =A4 (B6 _AG A4) | G4 A4 G4 E4 | G6 G2 F4 G4- | (G4 F8 =E4) | F16 |] %77
w: bi, qui-|a pec- ca- vi-|mus ti- * * *|bi, qui- a pec-|ca- vi- mus ti-||bi.|
V:2
 z16 | z16 | z16 | z4 G4 G4 F4 | E8 z4 F4- | F4 E4 F2 G2 A2 F2 | G2 F2 E2 D2 E4 C4- | %7
w: |||In me- li-|us, e-|* men- de- * * *|* * * * * mus|
 (C2 D2 E2 F2 G8) | z4 A4 A4 G4 | F8 z4 G4 | C6 C2 C4 F4 | D4 D4 E8 | C4 (F2 E2 D2 C2 B,4) | %13
w: _ _ _ _ _|in me- li-|us, in|me- li- us, quae|i- gno- ran-|ter pec- * * * *|
 C6 B,A, B,6 A,G, | A,6 G,F, G,4 G,4 | F,4 F4 D4 D4 | E8 C4 (c2 B2 | A2 G2 F4) B2 A2 G2 F2 | %18
w: ca- * * * * *|* * * * vi-|mus: quae i- gno-|ran- ter pec- *|* * * ca- * * *|
 E2 C2 A6 GF G4- | G2 FE F8 =E4 | F8 z8 | z4 B,4 _E2 =D2 C2 D2 | E8 F6 F2 | E16- | E8 z4 A4 | %25
w: |* * * * vi-|mus:|ne su- * * *|* * bi-|to|_ prae-|
 B4 F4 A4 E4 | F8 E8- | E4 C8 B,4 | C8 C4 C4 | (F2 =E2 F2 G2 F4) F4 | z8 z4 B,4 | %31
w: oc- cu- pa- ti|di- e,|_ di- e|mor- tis, quae-|ra- * * * * mus,|quae-|
 (_E2 =D2 E2 F2) E4 B,4 | C2 B,2 C2 =D2 E2 D2 C2 D2 | E2 F2 G2 E2 F4 F,4 | A,6 A,2 B,8 | %35
w: ra- * * * mus, quae-|ra- * * * * * * *|* * * * * mus|spa- ti- um|
 (E6 =D2 C2 B,2 A,2 B,2 | C4) F,4 A,4 B,4 | C4 G4 A4 A4 | (G4 F2 E2 F4) G4 | F6 G2 A2 G2 G2 FE | %40
w: poe- * * * * *|* ni- ten- ti-|ae, et in- ve-|ni- * * * re|non _ _ _ _ _ _|
 F8 F6 F2 | G4 (G6 FE =D4) | (E6 DC E4) D4 | C4 G4 G4 G4 | (F4 E2 D2 E4) F4 | G8 F4 E4 | (D8 C8) | %47
w: _ pos- si-|mus, non _ _ _|pos- * * * si-|mus, et in- ve-|ni- * * * re|non pos- si-|mus, _|
 z16 | z4 C4 C4 C4 | (B,4 A,2 G,2 A,4) B,4 | C8 B,4 A,4 | (G,8 F,4) C4 | _D8 C4 B,4- | %53
w: |et in- ve-|ni- * * * re|non pos- si-|mus. _ At-|ten- de Do-|
 (B,2 A,2 G,2 A,2 F,4) F,4 | G,4 G4 (A8 | G8) F4 G4- | G4 F4 G4 G4- | G4 C4 _D4 C4- | %58
w: * * * * * mi-|ne, at- ten-|* de Do-|* mi- ne, et|_ mi- se- re-|
 (C2 B,A, B,4) C8 | z4 G4 A4 G4- | (G2 FE F4) G4 D4 | =E4 E4 F8- | F8 =E8 | (G6 F_E F4) B,4 | %64
w: * * * * re,|mi- se- re-|* * * * re, et|mi- se- re-|* re:|qui- * * * a,|
 z4 B4 A4 F4 | A6 A2 A4 A4 | G4 B4 G4 F4 | G4 (G6 F2 D4) | (G2 F2 G2 A2 B8) | z4 B4 A4 F4 | %70
w: qui- a pec-|ca- vi- mus, qui-|a pec- ca- vi-|mus ti- * *|bi, _ _ _ _|qui- a pec-|
 A6 A2 A4 A4 | (G6 FE F4) G4 | C4 =D4 C4 F4 | _E4 C4 E6 E2 | E4 (B,6 C2 D4) | E4 (C6 B,2 G,4) | %76
w: ca- vi- mus, qui-|a _ _ _ pec-|ca- vi- mus, qui-|a pec- ca- vi-|mus ti- * *|bi, ti- * *|
 =A,16 |] %77
w: bi.|
V:3
 z8 c8- | c4 c4 B8 | G8 e8 | e4 d4 c8 | z8 z4 A4 | A4 G4 F8 | z16 | z16 | z4 c4 c4 B4 | %9
w: E-|* men- de-|mus in|me- li- us,|in|me- li- us,|||in me- li-|
 A4 A4 A4 G4 | F16 | z16 | z16 | z16 | z8 z4 c4 | =A4 A4 B4 G4 | z4 (c2 B2 A2 G2 F4) | %17
w: us, in me- li-|us,||||quae|i- gno- ran- ter|pec- * * * *|
 _d4 d4 B4 (e2 f2 | g2 e2 f4) =d4 e4 | c4 _d4 B4 c4 | c4 F4 (A2 B2 c2 A2 | B6) B2 A8 | z8 z4 B4 | %23
w: ca- vi- mus, pec- *|* * * ca- vi-|mus, pec- ca- vi-|mus: ne su- * * *|* bi to|prae-|
 c4 G4 A4 E4 | A8 A8 | z8 z4 A4- | A4 _d8 c4- | (c2 B2 A2 G2) F8 | G8 G8 | z8 z4 c4 | %30
w: oc- cu- pa- ti|di- e,|di-|* e mor-|* * * * tis,|mor- tis,|quae-|
 (=d2 c2 d2 e2 f4) d4 | z16 | z4 F4 (c6 BA) | G4 e8 =d4 | c4 (A6 GF G2 A2 | B4) B4 c6 B2 | %36
w: ra- * * * * mus,||quae- ra- * *|mus spa- ti-|um poe- * * * *|* ni- ten- *|
 A6 G2 F6 G2 | A4 G4 F8 | z16 | z4 =d4 e4 e4 | (d4 c2 B2 c4) d4 | (e6 dc B8) | G4 A4 G8 | %43
w: |* ti- ae,||et in- ve-|ni- * * * re|non _ _ _|pos- si- mus,|
 z8 z4 G4 | A4 B4 A6 GF | E2 F2 G2 A2 B2 A2 c4 | G8 z4 e4 | e4 e4 (d4 c2 B2 | c8) e8 | z16 | %50
w: et|in- ve- ni- * *||re, et|in- ve- ni- * *|* re||
 z4 e4 (e2 d2 c2 B2 | c4) c4 A8 | z4 B4 e8 | =d4 c8 B4 | c4 c4 f8 | e4 (=d6 c2 d2 e2 | c4) c4 d8 | %57
w: non pos- * * *|* si- mus.|At- ten-|de Do- mi-|ne, at- ten-|de Do- * * *|* mi- ne,|
 =e4 e4 f8- | f8 =e8 | d8 f4 _e4 | c8 d4 g4- | g4 c4 _d4 c4- | (c2 BA B4) c4 c4 | (_e6 dc d4) e4 | %64
w: mi- se- re-|* re,|et mi se-|re- re, et|_ mi- se- re-|* * * * re: qui-|a, _ _ _ qui-|
 d4 B4 c4 d4 | e4 f4 e4 c4 | e4 e4 d8 | z8 d8 | (e6 dc f4) e4 | d4 B4 c4 d4 | e4 f6 c2 e4- | %71
w: a pec- ca- vi-|mus, qui- a pec-|ca- vi- mus,|qui-|a _ _ _ pec-|ca- vi- mus ti-|bi, ti- * *|
 e2 d2 B2 c2 d6 e2 | f12 c4 | c8 z4 c4 | B4 G4 B6 B2 | A8 G8 | F16 |] %77
w: ||bi, qui-|a pec- ca vi-|mus ti-|bi.|
V:4
 F,12 E,4 | F,2 G,2 A,2 F,2 G,2 F,2 E,2 D,2 | E,4 (C,6 D,2 E,2 F,2 | G,8) z4 A,4 | %4
w: E- men-|de- * * * * * * *|* mus _ _ _|_ in|
 A,4 G,4 (F,6 E,D, | C,8) z8 | z16 | z4 C4 C4 B,4 | A,4 (A,,2 B,,2 C,2 =D,2 E,4) | F,4 F,4 C,8 | %10
w: me- li- us, _ _|_||in me- li-|us, in _ _ _ _|me- 1i- us,|
 z4 C4 =A,4 A,4 | B,8 G,4 (C2 B,2 | A,2 G,2 F,4) B,2 A,2 G,2 F,2 | E,2 C,2 A,6 G,F, G,4- | %14
w: quae i- gno-|ran- ter pec- *|* * * ca- * * *||
 G,2 F,E, F,8 =E,4 | F,8 z8 | z16 | z16 | z16 | z8 z4 C,4 | F,2 G,2 A,2 G,2 F,2 E,2 A,4- | %21
w: * * * * vi-|mus:||||ne|su- * * * * * *|
 A,4 G,4 A,8 | G,4 C4 B,8 | z8 z4 B,4 | C4 C,4 _D,4 A,,4 | z16 | _D,8 A,,8 | (C,8 _D,8) | C,16 | %29
w: * bi- to,|su- bi- to|prae-|oc- cu- pa- ti||di- e|mor- *|tis,|
 z8 z4 F,4 | (B,2 =A,2 B,2 C2 B,4) B,4 | z8 z4 E,4 | A,2 G,2 A,2 B,2 A,6 G,F, | E,4 E,4 B,,6 B,,2 | %34
w: quae-|ra- * * * * mus,|quae-|ra- * * * * * *|* mus spa- ti-|
 A,,8 E,8 | E,8 (A,6 G,2 | F,6 E,2 _D,4) D,4 | C,8 z4 C4 | C4 C4 (B,4 A,2 G,2 | A,4) B,4 C8 | %40
w: um poe-|ni- ten- *|* * * ti-|ae, et|in- ve- ni- * *|* re non|
 (B,4 A,2 G,2 A,4) B,4 | E,4 C,2 D,2 E,2 F,2 G,2 =A,2 | B,4 C8 =B,4 | C8 z8 | z16 | z16 | %46
w: pos- * * * si-|mus, non _ _ _ _ _|_ pos- si-|mus,|||
 z4 G,4 A,4 A,4 | (G,4 F,2 E,2 F,4) G,4 | F,8 (E,4 =D,2 C,2 | D,4) E,4 _D,6 C,B,, | %50
w: et in- ve-|ni- * * * re|non pos- * *|* si- mus. _ _|
 A,,2 B,,2 C,2 D,2 E,2 B,,2 F,4 | C,8 z4 F,4 | B,8 A,4 G,4- | (G,2 F,2 E,2 F,2 _D,4) D,4 | %54
w: _ _ _ _ _ _ _|* At-|ten- de Do-|* * * * * mi-|
 C,8 z4 F,4 | C4 G,4 (B,6 C2 | A,4) A,4 G,8 | C,8 B,,4 C,4 | _D,8 C,8 | G,8 F,4 G,4 | A,8 G,8 | %61
w: ne, at-|ten- de Do- *|* mi- ne,|et mi- se-|re- re,|et mi- se-|re- re,|
 C,8 B,,4 C,4 | _D,8 C,8 | z4 C4 B,4 G,4 | B,6 B,2 F,4 B,4 | A,4 F,4 A,6 A,2 | %66
w: et mi- se-|re- re:|qui- a pec-|ca- vi- mus, qui-|a pec- ca- vi-|
 (E,6 F,2 G,2 A,2 B,4) | (E,6 F,2 G,8) | C,4 C4 B,4 G,4 | B,6 B,2 F,4 B,4 | A,4 F,4 A,6 A,2 | %71
w: mus _ _ _ _|ti- * *|bi, qui- a pec-|ca- vi- mus, qui-|a pec- ca- vi-|
 E,8 z4 G,4 | F,4 D,4 F,6 F,2 | C,4 F,4 E,4 C,4 | E,6 E,2 B,,8 | C,16 | F,16 |] %77
w: mus, qui-|a pec- ca- vi-|mus, qui- a pec-|ca- vi- mus|ti-|bi.|

